tools/download-figma-icons/icons/outlined-medium/connector-ccs.svg

<svg width="24" height="24" viewBox="0 0 24 24" fill="none" xmlns="http://www.w3.org/2000/svg">
<path fill-rule="evenodd" clip-rule="evenodd" d="M4.5 19.5C4.5 21.1545 5.8455 22.5 7.5 22.5H16.5C18.1545 22.5 19.5 21.1545 19.5 19.5C19.5 17.8455 18.1545 16.5 16.5 16.5H7.5C5.8455 16.5 4.5 17.8455 4.5 19.5ZM3.75 6.9525C3.75 8.25075 4.05825 9.49125 4.6665 10.6403C6.09225 13.329 8.9025 15 12 15C15.0975 15 17.9078 13.329 19.3335 10.6395C19.9417 9.49125 20.25 8.25075 20.25 6.9525C20.25 6.1035 20.1135 5.26425 19.8458 4.4565C19.608 3.74175 19.2638 3.06 18.8235 2.43075C18.4403 1.88325 17.9032 1.5 17.5185 1.5H6.4845C6.01875 1.5 5.4645 2.00775 5.12175 2.511C4.7085 3.1155 4.38375 3.771 4.1535 4.458C3.8865 5.26425 3.75 6.1035 3.75 6.9525ZM20.6595 11.3415C19.8337 12.8985 18.6158 14.1653 17.1608 15.054C19.329 15.3758 21 17.2432 21 19.5C21 21.9818 18.9818 24 16.5 24H7.5C5.01825 24 3 21.9818 3 19.5C3 17.2432 4.671 15.3758 6.8385 15.054C5.38425 14.1653 4.16625 12.8993 3.3405 11.3422C2.62725 9.99375 2.25 8.4765 2.25 6.9525C2.25 5.943 2.412 4.944 2.73075 3.984C3.0045 3.165 3.3915 2.385 3.88275 1.66575C4.593 0.6225 5.56575 0 6.4845 0H17.5185C18.8505 0 19.7948 1.203 20.052 1.57125C20.5755 2.319 20.9842 3.1305 21.2685 3.98325C21.588 4.944 21.75 5.943 21.75 6.9525C21.75 8.4765 21.3727 9.99375 20.6595 11.3415ZM11.25 4.125C11.25 4.746 10.746 5.25 10.125 5.25C9.504 5.25 9 4.746 9 4.125C9 3.504 9.504 3 10.125 3C10.746 3 11.25 3.504 11.25 4.125ZM9 7.5C9 6.672 8.328 6 7.5 6C6.672 6 6 6.672 6 7.5C6 8.328 6.672 9 7.5 9C8.328 9 9 8.328 9 7.5ZM12.0344 9C11.2064 9 10.5344 8.328 10.5344 7.5C10.5344 6.672 11.2064 6 12.0344 6C12.8624 6 13.5344 6.672 13.5344 7.5C13.5344 8.328 12.8624 9 12.0344 9ZM18 7.5C18 8.328 17.328 9 16.5 9C15.672 9 15 8.328 15 7.5C15 6.672 15.672 6 16.5 6C17.328 6 18 6.672 18 7.5ZM12.75 11.25C12.75 10.422 13.422 9.75 14.25 9.75C15.078 9.75 15.75 10.422 15.75 11.25C15.75 12.078 15.078 12.75 14.25 12.75C13.422 12.75 12.75 12.078 12.75 11.25ZM9.75 9.75C8.922 9.75 8.25 10.422 8.25 11.25C8.25 12.078 8.922 12.75 9.75 12.75C10.578 12.75 11.25 12.078 11.25 11.25C11.25 10.422 10.578 9.75 9.75 9.75ZM13.875 5.25C14.496 5.25 15 4.746 15 4.125C15 3.504 14.496 3 13.875 3C13.254 3 12.75 3.504 12.75 4.125C12.75 4.746 13.254 5.25 13.875 5.25ZM8.25 20.25C7.836 20.25 7.5 19.914 7.5 19.5C7.5 19.086 7.836 18.75 8.25 18.75C8.664 18.75 9 19.086 9 19.5C9 19.914 8.664 20.25 8.25 20.25ZM8.25 17.25C7.0095 17.25 6 18.2595 6 19.5C6 20.7405 7.0095 21.75 8.25 21.75C9.4905 21.75 10.5 20.7405 10.5 19.5C10.5 18.2595 9.4905 17.25 8.25 17.25ZM15 19.5C15 19.914 15.336 20.25 15.75 20.25C16.164 20.25 16.5 19.914 16.5 19.5C16.5 19.086 16.164 18.75 15.75 18.75C15.336 18.75 15 19.086 15 19.5ZM13.5 19.5C13.5 18.2595 14.5095 17.25 15.75 17.25C16.9905 17.25 18 18.2595 18 19.5C18 20.7405 16.9905 21.75 15.75 21.75C14.5095 21.75 13.5 20.7405 13.5 19.5Z" fill="black"/>
</svg>

<svg width="24" height="24" viewBox="0 0 24 24" fill="none" xmlns="http://www.w3.org/2000/svg"><path fill-rule="evenodd" clip-rule="evenodd" d="M4.5 19.5c0 1.654 1.346 3 3 3h9c1.654 0 3-1.346 3-3s-1.346-3-3-3h-9c-1.654 0-3 1.346-3 3ZM3.75 6.953c0 1.298.308 2.538.917 3.687C6.091 13.33 8.902 15 12 15s5.908-1.671 7.334-4.36a7.798 7.798 0 0 0 .916-3.688 7.867 7.867 0 0 0-1.427-4.522c-.383-.547-.92-.93-1.305-.93H6.484c-.465 0-1.02.508-1.362 1.011a7.895 7.895 0 0 0-.968 1.947 7.922 7.922 0 0 0-.404 2.494Zm16.91 4.388a9.639 9.639 0 0 1-3.5 3.713A4.503 4.503 0 0 1 21 19.5c0 2.482-2.018 4.5-4.5 4.5h-9A4.504 4.504 0 0 1 3 19.5a4.503 4.503 0 0 1 3.838-4.446 9.64 9.64 0 0 1-3.498-3.712 9.422 9.422 0 0 1-1.09-4.39c0-1.009.162-2.008.48-2.968a9.385 9.385 0 0 1 1.153-2.318C4.593.623 5.566 0 6.484 0h11.034c1.332 0 2.277 1.203 2.534 1.571a9.374 9.374 0 0 1 1.698 5.381 9.418 9.418 0 0 1-1.09 4.39Zm-9.41-7.216a1.125 1.125 0 1 1-2.25 0 1.125 1.125 0 0 1 2.25 0ZM9 7.5a1.5 1.5 0 1 0-3.001.001A1.5 1.5 0 0 0 9 7.5ZM12.034 9a1.5 1.5 0 1 1 .001-3.001 1.5 1.5 0 0 1 0 3.001ZM18 7.5a1.5 1.5 0 1 1-3.001-.001A1.5 1.5 0 0 1 18 7.5Zm-5.25 3.75a1.5 1.5 0 1 1 3.001.001 1.5 1.5 0 0 1-3.001-.001Zm-3-1.5a1.5 1.5 0 1 0 .001 3.001A1.5 1.5 0 0 0 9.75 9.75Zm4.125-4.5a1.125 1.125 0 1 0 0-2.25 1.125 1.125 0 0 0 0 2.25Zm-5.625 15a.75.75 0 1 1 0-1.5.75.75 0 0 1 0 1.5Zm0-3C7.01 17.25 6 18.26 6 19.5s1.01 2.25 2.25 2.25 2.25-1.01 2.25-2.25-1.01-2.25-2.25-2.25ZM15 19.5a.75.75 0 1 0 1.5 0 .75.75 0 0 0-1.5 0Zm-1.5 0c0-1.24 1.01-2.25 2.25-2.25S18 18.26 18 19.5s-1.01 2.25-2.25 2.25-2.25-1.01-2.25-2.25Z" fill="currentColor"/></svg>
